src/images/pages/cashier/cryptocurrencies.svg

<svg width="140" height="140" viewBox="0 0 140 140" fill="none" xmlns="http://www.w3.org/2000/svg">
<path d="M1 1H139V139H1V1Z" fill="#F8F8F9"/>
<rect width="88" height="88" transform="translate(26 26)" fill="#F8F8F9"/>
<path d="M78.0437 70.2647C90.2671 70.2647 100.176 60.3557 100.176 48.1323C100.176 35.909 90.2671 26 78.0437 26C65.8204 26 55.9114 35.909 55.9114 48.1323C55.9114 60.3557 65.8204 70.2647 78.0437 70.2647Z" fill="#2A3052"/>
<path d="M94.8652 48.1323C94.8652 48.6927 94.8377 49.2478 94.7827 49.7927C94.7002 50.6486 94.5506 51.4856 94.3427 52.2986C94.0659 53.3848 93.681 54.4281 93.2031 55.4181C92.8336 56.1864 92.4056 56.922 91.9278 57.6181C91.3005 58.5342 90.5855 59.385 89.7931 60.1567C89.1864 60.7514 88.5367 61.298 87.8458 61.7947C86.9503 62.4392 85.9895 62.9978 84.9755 63.4584C84.2072 63.8073 83.4097 64.0995 82.5847 64.3298C81.5328 64.6272 80.438 64.8214 79.3139 64.9056C78.8945 64.9383 78.4717 64.9537 78.0438 64.9537C77.6158 64.9537 77.193 64.9383 76.7736 64.9056C75.6495 64.8214 74.5547 64.6272 73.5028 64.3298C72.6778 64.0995 71.8803 63.8073 71.112 63.4584C70.098 62.9978 69.1372 62.4392 68.2417 61.7947C67.5508 61.298 66.9011 60.7514 66.2944 60.1567C65.502 59.385 64.787 58.5342 64.1597 57.6181C63.6802 56.922 63.2539 56.1864 62.8827 55.4181V55.4164C62.4049 54.4281 62.0216 53.3848 61.7449 52.2986C61.5369 51.4856 61.3874 50.6486 61.3049 49.7927C61.2499 49.2478 61.2224 48.6927 61.2224 48.1323C61.2224 47.572 61.2499 47.0186 61.3049 46.472C61.3874 45.6161 61.5369 44.7791 61.7449 43.9661C62.0216 42.8816 62.4049 41.8383 62.8827 40.8483V40.8466C63.2539 40.0783 63.6802 39.3444 64.1597 38.6466C64.7853 37.7322 65.5003 36.8814 66.2927 36.1097C66.8994 35.515 67.5491 34.9684 68.24 34.4717C69.1355 33.8272 70.098 33.2686 71.112 32.808C71.8803 32.4591 72.6778 32.1669 73.5028 31.9366C74.5547 31.6392 75.6495 31.445 76.7736 31.3608C77.193 31.3281 77.6158 31.3127 78.0438 31.3127C78.4717 31.3127 78.8945 31.3281 79.3139 31.3608C80.438 31.445 81.5328 31.6392 82.5847 31.9366C83.4097 32.1669 84.2072 32.4591 84.9755 32.808C85.9895 33.2686 86.952 33.8272 87.8475 34.4717C88.5384 34.9684 89.1881 35.515 89.7949 36.1097C90.5855 36.8814 91.3005 37.7322 91.9278 38.6466C92.4074 39.3444 92.8336 40.08 93.2049 40.8483C93.6827 41.8383 94.0659 42.8816 94.3427 43.9661C94.5506 44.7791 94.7002 45.6161 94.7827 46.472C94.8377 47.0186 94.8652 47.572 94.8652 48.1323Z" fill="#F8F8F9"/>
<path d="M48.1323 104.165C60.3557 104.165 70.2647 94.2563 70.2647 82.033C70.2647 69.8096 60.3557 59.9006 48.1323 59.9006C35.909 59.9006 26 69.8096 26 82.033C26 94.2563 35.909 104.165 48.1323 104.165Z" fill="#2A3052"/>
<path d="M64.9538 82.033C64.9538 82.5933 64.9263 83.1467 64.8713 83.6933C64.7888 84.5492 64.6392 85.3862 64.4313 86.1992C64.1546 87.2837 63.7713 88.327 63.2935 89.317C62.9222 90.0853 62.496 90.8209 62.0164 91.5188C61.3908 92.4331 60.6758 93.2839 59.8835 94.0556C59.2767 94.6503 58.6253 95.1986 57.9344 95.6953C57.0407 96.3398 56.0799 96.8967 55.0658 97.3591C54.2975 97.7063 53.4983 98.0002 52.675 98.2305C51.6214 98.5278 50.5283 98.722 49.4025 98.8063C48.9832 98.8389 48.5603 98.8544 48.1324 98.8544C47.7044 98.8544 47.2816 98.8389 46.8622 98.8063C45.7364 98.722 44.6433 98.5261 43.5897 98.2305C42.7664 98.0002 41.9689 97.708 41.2007 97.3591C40.1866 96.8984 39.2258 96.3398 38.3303 95.6953C37.6394 95.1986 36.988 94.6503 36.3813 94.0556C35.5907 93.2839 34.8757 92.4331 34.2483 91.5188C33.7705 90.8209 33.3442 90.087 32.973 89.3187V89.317C32.4952 88.327 32.1119 87.2837 31.8352 86.1992C31.6272 85.3862 31.4777 84.5492 31.3952 83.6933C31.3402 83.1467 31.3127 82.5933 31.3127 82.033C31.3127 81.4727 31.3402 80.9192 31.3952 80.3727C31.4777 79.5167 31.6272 78.6797 31.8352 77.8667C32.1119 76.7822 32.4952 75.7389 32.973 74.7489V74.7472C33.3442 73.9789 33.7705 73.245 34.2483 72.5472C34.8757 71.6328 35.5907 70.782 36.3813 70.0103C36.988 69.4156 37.6377 68.8691 38.3286 68.3723C39.2241 67.7278 40.1866 67.1675 41.2007 66.7069C41.9689 66.358 42.7664 66.0658 43.5897 65.8355C44.6433 65.5398 45.7364 65.3439 46.8622 65.2597C47.2816 65.227 47.7044 65.2115 48.1324 65.2115C48.5603 65.2115 48.9832 65.227 49.4025 65.2597C50.5283 65.3439 51.6214 65.5381 52.675 65.8355C53.4983 66.0658 54.2975 66.3597 55.0658 66.7069C56.0799 67.1692 57.0407 67.7278 57.9361 68.3723C58.6271 68.8691 59.2767 69.4156 59.8835 70.0103C60.6758 70.782 61.3908 71.6328 62.0164 72.5472C62.496 73.245 62.9222 73.9806 63.2935 74.7489C63.7713 75.7389 64.1546 76.7822 64.4313 77.8667C64.6392 78.6797 64.7888 79.5167 64.8713 80.3727C64.9263 80.9192 64.9538 81.4727 64.9538 82.033Z" fill="#F8F8F9"/>
<path d="M91.8676 114C104.091 114 114 104.091 114 91.8676C114 79.6443 104.091 69.7353 91.8676 69.7353C79.6443 69.7353 69.7353 79.6443 69.7353 91.8676C69.7353 104.091 79.6443 114 91.8676 114Z" fill="#2A3052"/>
<path d="M108.687 91.8676C108.687 92.428 108.66 92.9814 108.605 93.528C108.522 94.3839 108.373 95.2192 108.165 96.0322C107.888 97.1184 107.505 98.1617 107.027 99.1517V99.1534L105.752 101.353C105.124 102.268 104.409 103.119 103.619 103.89C103.012 104.485 102.361 105.033 101.67 105.53C100.774 106.175 99.8117 106.733 98.7976 107.192C98.0311 107.541 97.2336 107.833 96.4103 108.063C95.3567 108.361 94.2636 108.555 93.1378 108.639C92.7184 108.672 92.2956 108.687 91.8676 108.687C91.4397 108.687 91.0169 108.672 90.5975 108.639C89.4717 108.555 88.3786 108.361 87.325 108.063C86.5017 107.833 85.7025 107.541 84.9359 107.192C83.9219 106.731 82.9611 106.175 82.0656 105.53C81.3747 105.033 80.7233 104.485 80.1165 103.89C79.3242 103.119 78.6092 102.268 77.9836 101.353C77.5041 100.656 77.0778 99.92 76.7065 99.1517C76.2287 98.1617 75.8455 97.1184 75.5687 96.0322C75.3608 95.2192 75.2112 94.3839 75.1287 93.528C75.0737 92.9814 75.0462 92.428 75.0462 91.8676C75.0462 91.3073 75.0737 90.7522 75.1287 90.2073C75.2112 89.3514 75.3608 88.5144 75.5687 87.7014C75.8455 86.6151 76.2287 85.5719 76.7065 84.5836C77.0778 83.8153 77.5041 83.0797 77.9836 82.3819C78.6109 81.4658 79.3259 80.615 80.1183 79.8433C80.7233 79.2503 81.3747 78.702 82.0639 78.207C82.9594 77.5625 83.9201 77.0039 84.9342 76.5415C85.7025 76.1944 86.5017 75.9005 87.325 75.6701C88.3786 75.3728 89.4717 75.1786 90.5975 75.0944C91.0169 75.0617 91.4397 75.0462 91.8676 75.0462C92.2956 75.0462 92.7184 75.0617 93.1378 75.0944C94.2619 75.1786 95.3567 75.3728 96.4086 75.6701C97.2336 75.9005 98.0311 76.1926 98.7994 76.5415C99.8134 77.0022 100.774 77.5608 101.67 78.2053C102.361 78.702 103.01 79.2486 103.617 79.8433C104.408 80.615 105.124 81.4658 105.752 82.3819C106.23 83.078 106.656 83.8136 107.027 84.5819V84.5836C107.505 85.5719 107.888 86.6151 108.165 87.7014C108.373 88.5142 108.522 89.3514 108.605 90.2073C108.66 90.7522 108.687 91.3073 108.687 91.8676Z" fill="#F8F8F9"/>
<path d="M83.0398 44.7661V44.7462C83.0398 42.6299 81.62 40.8398 79.6831 40.2761V39.6776C79.6831 38.9655 79.1061 38.3885 78.394 38.3885C77.682 38.3885 77.105 38.9655 77.105 39.6776V40.0903H76.3264V39.6776C76.3264 38.9655 75.7494 38.3885 75.0373 38.3885C74.3252 38.3885 73.7483 38.9655 73.7483 39.6776V40.0903H73.2955C72.5835 40.0903 72.0065 40.6673 72.0065 41.3793C72.0065 42.0914 72.5835 42.6684 73.2955 42.6684H73.7483V48.1328V53.5972H73.2955C72.5835 53.5972 72.0065 54.1742 72.0065 54.8863C72.0065 55.5984 72.5835 56.1754 73.2955 56.1754H73.7483V56.5882C73.7483 57.3003 74.3252 57.8773 75.0373 57.8773C75.7494 57.8773 76.3264 57.3003 76.3264 56.5882V56.1754H77.105V56.5882C77.105 57.3003 77.682 57.8773 78.394 57.8773C79.1061 57.8773 79.6831 57.3003 79.6831 56.5882V55.9896C81.62 55.4257 83.0398 53.6357 83.0398 51.5195V51.4997C83.0398 50.1764 82.484 48.9814 81.5949 48.1328C82.4841 47.2843 83.0398 46.0892 83.0398 44.7661ZM80.4617 51.4995V51.5193C80.4617 52.665 79.5296 53.5971 78.3841 53.5971H76.3262V49.4217H78.3841C79.5296 49.4217 80.4617 50.3538 80.4617 51.4995ZM76.3264 46.8436V42.6682H78.3842C79.5298 42.6682 80.4619 43.6003 80.4619 44.746V44.766C80.4619 45.9115 79.5298 46.8436 78.3842 46.8436H76.3264Z" fill="#2A3052"/>
<path d="M97.072 96.6645H91.5377V92.8035C92.001 92.6888 92.5189 92.5617 93.0983 92.4207C93.7901 92.2525 94.2146 91.5555 94.0465 90.8635C93.8783 90.1719 93.1815 89.7469 92.4893 89.9153C92.1516 89.9975 91.8357 90.0746 91.5377 90.1479V84.7001C91.5377 83.988 90.9607 83.411 90.2486 83.411C89.5365 83.411 88.9595 83.988 88.9595 84.7001V90.7936C87.7947 91.0928 87.3699 91.2162 87.3415 91.2247C86.6583 91.4244 86.2669 92.1399 86.4663 92.8231C86.6305 93.3856 87.145 93.751 87.7033 93.751C87.8226 93.751 87.9441 93.7342 88.0646 93.6991C88.0697 93.6976 88.3207 93.6251 88.9595 93.4573V97.9532C88.9595 98.6653 89.5365 99.2423 90.2486 99.2423H97.072C97.7841 99.2423 98.3611 98.6653 98.3611 97.9532C98.3611 97.2411 97.784 96.6645 97.072 96.6645Z" fill="#2A3052"/>
<path d="M53.3333 82.0202L48.2307 80.7566C48.1664 80.7406 48.0992 80.7406 48.0347 80.7566L42.9321 82.0202C42.5767 82.1082 42.2944 81.7191 42.4888 81.4085L47.7872 72.9438C47.9469 72.6887 48.3183 72.6887 48.478 72.9438L53.7764 81.4085C53.971 81.7191 53.6889 82.1083 53.3333 82.0202Z" fill="#2A3052"/>
<path d="M43.4355 83.7902L47.9735 81.7643C48.0748 81.7191 48.1906 81.7191 48.2919 81.7643L52.8299 83.7902C53.071 83.8978 53.138 84.2087 52.9626 84.4062L48.4245 89.5116C48.2692 89.6864 47.9962 89.6864 47.8409 89.5116L43.3028 84.4062C43.1275 84.2087 43.1944 83.8978 43.4355 83.7902Z" fill="#2A3052"/>
<path d="M138 2V138H2V2H138ZM140 0H0V140H140V0Z" fill="#CDCCCC"/>
</svg>

<svg width="140" height="140" fill="none" xmlns="http://www.w3.org/2000/svg"><path d="M1 1h138v138H1V1z" fill="#F8F8F9"/><path fill="#F8F8F9" d="M26 26h88v88H26z"/><path d="M78.044 70.265c12.223 0 22.132-9.91 22.132-22.133C100.176 35.91 90.267 26 78.044 26 65.82 26 55.91 35.909 55.91 48.132c0 12.224 9.91 22.133 22.133 22.133z" fill="#2A3052"/><path d="M94.865 48.132c0 .56-.027 1.116-.082 1.66a16.61 16.61 0 01-1.58 5.625 16.763 16.763 0 01-3.41 4.739 16.83 16.83 0 01-4.818 3.302 16.52 16.52 0 01-2.39.872 16.565 16.565 0 01-3.271.576c-.42.032-.842.048-1.27.048-.428 0-.851-.016-1.27-.048a16.565 16.565 0 01-3.271-.576 16.52 16.52 0 01-2.391-.872 16.83 16.83 0 01-4.818-3.301 16.763 16.763 0 01-2.134-2.539 16.627 16.627 0 01-1.277-2.2v-.002a16.545 16.545 0 01-1.138-3.117 16.492 16.492 0 01-.44-2.506 16.549 16.549 0 010-3.321 16.632 16.632 0 011.578-5.624v-.001c.37-.769.797-1.503 1.277-2.2a16.724 16.724 0 012.133-2.537 16.845 16.845 0 014.82-3.302 16.52 16.52 0 012.39-.871 16.565 16.565 0 013.27-.576c.42-.033.843-.048 1.27-.048.429 0 .851.015 1.27.048 1.125.084 2.22.278 3.272.576.825.23 1.622.522 2.39.871a16.845 16.845 0 014.82 3.302 16.928 16.928 0 013.41 4.738 16.64 16.64 0 011.578 5.624c.055.547.082 1.1.082 1.66z" fill="#F8F8F9"/><path d="M48.132 104.165c12.224 0 22.133-9.909 22.133-22.132s-9.91-22.132-22.133-22.132C35.91 59.9 26 69.81 26 82.033s9.909 22.132 22.132 22.132z" fill="#2A3052"/><path d="M64.954 82.033c0 .56-.028 1.114-.083 1.66a16.632 16.632 0 01-2.855 7.826 16.733 16.733 0 01-2.133 2.537 16.861 16.861 0 01-4.818 3.303 16.8 16.8 0 01-13.864 0 16.834 16.834 0 01-4.82-3.303 16.94 16.94 0 01-3.408-4.737v-.002a16.632 16.632 0 01-1.578-5.624 16.574 16.574 0 010-3.32 16.632 16.632 0 011.578-5.624v-.002a16.919 16.919 0 018.228-8.04 16.707 16.707 0 016.932-1.495c.427 0 .85.015 1.27.048a16.8 16.8 0 015.663 1.447 16.944 16.944 0 018.228 8.042 16.632 16.632 0 011.577 5.624c.055.546.083 1.1.083 1.66z" fill="#F8F8F9"/><path d="M91.868 114C104.09 114 114 104.091 114 91.868c0-12.224-9.909-22.133-22.132-22.133-12.224 0-22.133 9.91-22.133 22.133 0 12.223 9.91 22.132 22.133 22.132z" fill="#2A3052"/><path d="M108.687 91.868c0 .56-.027 1.113-.082 1.66a16.612 16.612 0 01-1.578 5.624v.001l-1.275 2.2a16.942 16.942 0 01-2.133 2.537 16.78 16.78 0 01-13.022 4.749 16.524 16.524 0 01-3.272-.576 16.815 16.815 0 01-7.209-4.173 16.666 16.666 0 01-2.132-2.537 16.712 16.712 0 01-2.938-9.485c0-.56.028-1.116.083-1.66.082-.857.232-1.694.44-2.507a16.769 16.769 0 012.415-5.32 16.763 16.763 0 012.134-2.538 16.955 16.955 0 014.816-3.302 16.824 16.824 0 012.391-.87 16.59 16.59 0 013.272-.577c.42-.032.843-.048 1.27-.048.429 0 .851.016 1.27.048 1.125.085 2.22.279 3.272.576.825.23 1.622.523 2.39.871a16.859 16.859 0 014.818 3.302 16.888 16.888 0 013.41 4.739v.002a16.55 16.55 0 011.138 3.117c.208.813.357 1.65.44 2.506.055.545.082 1.1.082 1.66z" fill="#F8F8F9"/><path d="M83.04 44.766v-.02a4.663 4.663 0 00-3.357-4.47v-.598a1.289 1.289 0 10-2.578 0v.412h-.779v-.412a1.289 1.289 0 10-2.578 0v.412h-.453a1.289 1.289 0 100 2.578h.453v10.929h-.453a1.289 1.289 0 100 2.578h.453v.413a1.289 1.289 0 102.578 0v-.413h.779v.413a1.289 1.289 0 102.578 0v-.598a4.663 4.663 0 003.357-4.47v-.02a4.643 4.643 0 00-1.445-3.367 4.642 4.642 0 001.445-3.367zM80.462 51.5v.02a2.08 2.08 0 01-2.078 2.078h-2.058v-4.175h2.058a2.08 2.08 0 012.078 2.078zm-4.136-4.655v-4.176h2.058a2.08 2.08 0 012.078 2.078v.02a2.08 2.08 0 01-2.078 2.078h-2.058zM97.072 96.665h-5.534v-3.862l1.56-.382a1.29 1.29 0 00-.609-2.506l-.951.233V84.7a1.289 1.289 0 10-2.578 0v6.094c-1.165.299-1.59.422-1.618.43a1.289 1.289 0 00.723 2.475c.005-.001.256-.074.895-.242v4.496c0 .712.577 1.29 1.289 1.29h6.823a1.289 1.289 0 100-2.578zM53.333 82.02l-5.102-1.263a.406.406 0 00-.196 0l-5.103 1.263a.407.407 0 01-.443-.611l5.298-8.465a.407.407 0 01.691 0l5.298 8.465c.195.31-.087.7-.443.611z" fill="#2A3052"/><path d="M43.435 83.79l4.538-2.026a.39.39 0 01.319 0l4.538 2.026a.39.39 0 01.133.616l-4.538 5.106a.39.39 0 01-.584 0l-4.538-5.106a.39.39 0 01.133-.616z" fill="#2A3052"/><path d="M138 2v136H2V2h136zm2-2H0v140h140V0z" fill="#CDCCCC"/></svg>
